remix/Document/folder-keyhole-fill.svg

<svg viewBox="0 0 24 24" fill="currentColor" xmlns="http://www.w3.org/2000/svg"><path d="M10.4142 3L12.4142 5H21C21.5523 5 22 5.44772 22 6V20C22 20.5523 21.5523 21 21 21H3C2.44772 21 2 20.5523 2 20V4C2 3.44772 2.44772 3 3 3H10.4142ZM12 9C10.8954 9 10 9.89543 10 11C10 11.7403 10.4022 12.3866 10.9999 12.7324L11 17H13L13.0011 12.7318C13.5983 12.3858 14 11.7398 14 11C14 9.89543 13.1046 9 12 9Z"/></svg>

<svg viewBox="0 0 24 24" xmlns="http://www.w3.org/2000/svg"><path fill="none" d="M0 0h24v24H0Z"/><path d="M10.414 3l2 2H21v0c.55 0 1 .44 1 1v14 0c0 .55-.45 1-1 1H3v0c-.56 0-1-.45-1-1V4v0c0-.56.44-1 1-1h7.414Zm1.58 6v0c-1.11 0-2 .89-2 2 0 .71.38 1.37.99 1.73v4.26h2l0-4.27v0c.95-.56 1.28-1.78.73-2.74 -.36-.62-1.02-1.01-1.74-1Z"/></svg>
